Sources/FrostedUI/Resources/Icons.xcassets/palette16.imageset/palette-16.svg

<svg width="16" height="16" viewBox="0 0 16 16" fill="none" xmlns="http://www.w3.org/2000/svg" data-fui-icon="true">
  <path
    d="M8 0C12.4183 0 16 3.58172 16 8C16 8.18336 15.9936 8.36541 15.9814 8.5459C15.8873 9.94115 14.6348 10.75 13.4404 10.75H10.585C9.99762 10.75 9.48523 11.1499 9.34277 11.7197L8.76855 14.0176C8.48831 15.1383 7.38958 16.0912 6.0752 15.7666C2.58725 14.9046 0 11.7553 0 8C0 3.58172 3.58172 0 8 0ZM8 1.5C4.41015 1.5 1.5 4.41015 1.5 8C1.5 11.0494 3.60051 13.6101 6.43457 14.3105C6.76034 14.3911 7.18388 14.1717 7.31348 13.6533L7.8877 11.3555C8.19715 10.118 9.30938 9.25001 10.585 9.25H13.4404C14.0576 9.24998 14.4573 8.85753 14.4854 8.44531C14.4953 8.29841 14.5 8.14964 14.5 8C14.5 4.41015 11.5899 1.5 8 1.5ZM5 10C5.55228 10 6 10.4477 6 11C6 11.5523 5.55228 12 5 12C4.44772 12 4 11.5523 4 11C4 10.4477 4.44772 10 5 10ZM4.5 5.5C5.05228 5.5 5.5 5.94772 5.5 6.5C5.5 7.05228 5.05228 7.5 4.5 7.5C3.94772 7.5 3.5 7.05228 3.5 6.5C3.5 5.94772 3.94772 5.5 4.5 5.5ZM11.5 5.5C12.0523 5.5 12.5 5.94772 12.5 6.5C12.5 7.05228 12.0523 7.5 11.5 7.5C10.9477 7.5 10.5 7.05228 10.5 6.5C10.5 5.94772 10.9477 5.5 11.5 5.5ZM8 3C8.55228 3 9 3.44772 9 4C9 4.55228 8.55228 5 8 5C7.44772 5 7 4.55228 7 4C7 3.44772 7.44772 3 8 3Z"
    fill="currentColor"
  />
</svg>

<svg xmlns="http://www.w3.org/2000/svg" width="16" height="16" fill="none" data-fui-icon="true" viewBox="0 0 16 16"><path fill="currentColor" d="M8 0a8 8 0 0 1 7.981 8.546c-.094 1.395-1.346 2.204-2.54 2.204h-2.856c-.587 0-1.1.4-1.242.97l-.574 2.298c-.28 1.12-1.38 2.073-2.694 1.749A8 8 0 0 1 8 0m0 1.5a6.5 6.5 0 0 0-1.565 12.81c.325.081.749-.138.878-.657l.575-2.298a2.78 2.78 0 0 1 2.697-2.105h2.855c.618 0 1.017-.392 1.045-.805A6.5 6.5 0 0 0 8 1.5M5 10a1 1 0 1 1 0 2 1 1 0 0 1 0-2m-.5-4.5a1 1 0 1 1 0 2 1 1 0 0 1 0-2m7 0a1 1 0 1 1 0 2 1 1 0 0 1 0-2M8 3a1 1 0 1 1 0 2 1 1 0 0 1 0-2"/></svg>
